src/24/actions/format-text-capitalize.svg

<svg xmlns="http://www.w3.org/2000/svg" viewBox="0 0 24 24">
  <defs id="defs3051">
    <style type="text/css" id="current-color-scheme">
      .ColorScheme-Text {
        color:#5d656b;
      }
      .ColorScheme-Highlight {
        color:#3daee9;
      }
      </style>
  </defs>
 <path 
     style="fill:currentColor;fill-opacity:1;stroke:none" 
     d="M 6.0351562 8 L 2 20 L 2.9746094 20 L 4.4199219 16 L 9.453125 16 L 10.894531 20 L 12 20 L 7.9101562 8 L 6.0351562 8 z M 13 8 L 13 16 L 13 20 L 14 20 L 14 18.638672 A 4 4 0 0 0 17 20 A 4 4 0 0 0 21 16 A 4 4 0 0 0 17 12 A 4 4 0 0 0 14 13.361328 L 14 8 L 13 8 z M 6.9433594 9.0292969 L 9.0917969 15 L 4.7832031 15 L 6.9433594 9.0292969 z M 17 13 A 3 3 0 0 1 20 16 A 3 3 0 0 1 17 19 A 3 3 0 0 1 14 16 A 3 3 0 0 1 17 13 z "
     class="ColorScheme-Text"
     />
 <path 
     style="fill:currentColor;fill-opacity:1;stroke:none" 
     d="M 7 3 L 4 7 L 10 7 L 7 3 z "
     class="ColorScheme-Highlight"
     />
</svg>

<svg xmlns="http://www.w3.org/2000/svg" viewBox="0 0 24 24"><path d="M6.035 8L2 20h.975l1.445-4h5.033l1.442 4H12L7.91 8H6.035zM13 8v12h1v-1.361A4 4 0 0 0 17 20a4 4 0 0 0 4-4 4 4 0 0 0-4-4 4 4 0 0 0-3 1.361V8h-1zM6.943 9.03L9.092 15H4.783l2.16-5.97zM17 13a3 3 0 0 1 3 3 3 3 0 0 1-3 3 3 3 0 0 1-3-3 3 3 0 0 1 3-3z" fill="currentColor" color="#5d656b"/><path d="M7 3L4 7h6L7 3z" fill="currentColor" color="#3daee9"/></svg>
